X:1
T:James Gibb editions
T:The day is gently sinking to a close (II) - Barnby
%%score [ ( 1 2 ) ( 3 4 ) ]
L:1/8
Q:1/4=84
M:4/4
K:D
V:1 treble nm="Midi_74"
V:2 treble 
V:3 bass nm="Midi_74"
V:4 bass 
V:1
"^Christopher Wordsworth\n(1807-85)""^10 10. 10 10. 10 10""^The day is gently sinking to a close (II)""^Joseph Barnby\n(1838-96)" F8 | %1
w: 1.~The~day~is~gently|
 A2 A2 G2 D2 | F4 || G8 | G2 F2 B2 G2 | E4 || A8 | B2 B2 c2 A2 | d4- || d2 d2 d2 d2 | %10
w: sink- ing to a|close,|Fainter~and~yet~more|faint the sun- light|glows,|O~Brightness~of~Thy|Fa- ther's glo- ry,|Thou,|* E- ter- nal|
 ^d2 d2 e2 c2 | B3 A A4 || F8 | F3 F E2 D2 | B4 || B8 | e2 d2 d2 A2 | F3 E D4 || G4 F4 |] %19
w: Light of Light, be|with us now:|Where~Thou~art~present,|dark- ness can- not|be:|Midnight~is|glo- rious noon, O|Lord, with ~Thee.|A- men.|
V:2
 D8 | E2 E2 D2 D2 | D4 || D8 | ^D2 D2 E2 B,2 | C4 || E8 | E2 E2 A2 A2 | A4- || A2 A2 A2 A2 | %10
 A2 A2 A2 A2 | ^G3 A A4 || D8 | =C3 C C2 C2 | B,4 || ^D8 | B,2 _B,2 A,2 D2 | C3 C D4 || D4 D4 |] %19
V:3
 A,8 | C2 C2 B,2 B,2 | A,4 || G,8 | B,2 B,2 B,2 E,2 | A,4 || C8 | D2 D2 E2 C2 | D4- || %9
 D2 D2 D2 A,2 | B,2 =C2 ^C2 E2 | D3 C C4 || %12
"^2 Our changeful lives are ebbing to an end,\nOnward to darkness and to death we tend;\nO Conqueror of the grave, be Thou our Guide,\nBe Thou our Light in deaths dark eventide;\nThen in our mortal hour will be no gloom,\nNo sting in death, no terror in the tomb.\n\n3 Thou, Who in darkness walking, didst appear\nUpon the waves and Thy disciples cheer,\nCome, Lord, in lonesome days, when storms assail,\nAnd earthly hopes and human succours fail;\nWhen all is dark, may we behold Thee nigh,\nAnd hear Thy voice, \"Fear not, for it is I.\"\n\n4 The weary world is mouldering to decay,\nIts glories wane, its pageants fade away:\nIn that last sunset, when the stars shall fall,\nMay we arise, awakened by Thy call,\nWith Thee, O Lord, for ever to abide\nIn that blest day which has no eventide." A,8 | %13
"^The day is gently sinking to a close - Barnby" A,3 A, G,2 F,2 | G,4 || A,8 | u^G,2 =G,2 F,2 F,2 | %17
 A,3 G, F,4 || B,4 A,4 |] %19
V:4
 D,8 | D,2 D,2 D,2 D,2 | D,4 || B,,8 | B,2 A,2 G,2 E,2 | A,,4 || A,8 | ^G,2 G,2 =G,2 G,2 | F,4- || %9
 F,2 F,2 F,2 F,2 | =F,2 F,2 E,2 E,2 | E,3 A, A,4 || D,8 | D,3 D, D,2 D,2 | G,4 || F,8 | %16
 E,2 E,2 A,,2 A,,2 | A,,3 A,, D,4 || G,,4 D,4 |] %19

